!!!!SEGMENT: pl-kozmzk--mzk-m-159--031_walczynski-franciszek--praeludia-organi-op-5-maestoso.krn
!!!cenid: 18xx:2774
!!!COM: Walczyński, Franciszek
!!!COM-rismid: pe30021989
!!!CDT: ~1852-1937
!!!CNT: Polish
!!!GTL: Praeludia organi op. 5
!!!OTL: 31. Maestoso
!!!PDT: 1894
!!!AGN: Secular; Prelude
!!!SMS-siglum: PL-KOZmzk
!!!SMS-shelfmark: mzk/m/159
!!!SMS-shelfwork: 031 G
!!!SMS-variant:
!!!SMS-altvar:
!!!NIFC-rismid: 1001118831
!!!URL-scan: https://repozytorium.nifc.pl/islandora/object/pl-kozmzk%3A2265/datastream/PDF/view
!!!ONB-nifc: UWAGA: numeracja plików zgodna z numeracją źrodłową
!!!OMD:30. Andante.
**kern	**kern	**dynam
*part2	*part1	*part1
*staff2	*staff1	*
*Iorgan	*Iempty	*
*I"[Organo]	*	*
*clefF4	*clefG2	*
*k[b-]	*k[b-]	*
*F:	*F:	*
*M6/8	*M6/8	*
=1	=1	=1
*^	*^	*
(8c/L	2.F\	(8a/L	2.f\	p
8Bn/	.	8g#X/	.	.
8c/J	.	8a/J	.	.
4d/	.	8cc/L	.	<
.	.	8b-/	.	.
[8c/	.	8a/J	.	[
=2	=2	=2	=2	=2
8c/L]	(4.C\	4a/	4.e\	.
8c/	.	.	.	>
8B-X/J	.	8g/	.	.
8A/L	8F\L	4.f/)	4ryy	]
8B-/	8G\	.	.	.
8c/J)	8A\J	.	8ryy	.
=3	=3	=3	=3	=3
(8A/L	2.F\)	(8cc/L	2.f\	.
8G#X/	.	8bn/	.	.
8A/J	.	8cc/J	.	.
8c/L	.	8ee/L	.	<
8B-/	.	8dd/	.	.
8A/J	.	8cc/J	.	[[
=4	=4	=4	=4	=4
2.c/	8E\L	4cc/	8g\L	.
.	8D\	.	8f\	>
.	8E\J	8b-/	[8g\J	.
.	4.F\)	4.a/)	8g\L]	.
.	.	.	8e\	.
.	.	.	8f\J	]
=5	=5	=5	=5	=5
(8c/L	(8A\L	(8ee-X/L	[2.f\	.
8Bn/	8G#X\	8dd/	.	.
8c/J	8A\J	8ee-/J	.	.
8A/L	8F\L	4ff/	.	.
8B-X/	8Gn\	.	.	.
8c/J)	8A\J)	8ee-/	.	.
=6	=6	=6	=6	=6
(4d/	8B-\L	4dd/	4f\]	.
.	8F\	.	.	.
8e-X/	8F#X\J	8cc/)	8a\	.
8d/L	8G\	(8b-/L	[4.g\	.
8c/	4E-X\	8cc/	.	.
8B-/J)	.	8cc#X/J)	.	.
=7	=7	=7	=7	=7
(4.B-/	[2.D\	(8dd/L	(2.g\_	.
.	.	8gg/	.	.
.	.	8g/J	.	.
4.c#X/	.	8b-/L	.	.
.	.	8a/	.	.
.	.	8g/J	.	.
=8	=8	=8	=8	=8
2.d/)	2.D;\]	2.a;/)	8g\L]	.
.	.	.	8f#X\	.
.	.	.	8e\J	.
.	.	.	4.f#;\)	.
!!LO:LB:g=original
=9	=9	=9	=9	=9
(8D/L	2.r	2.rg	2.r	p
8F#X/	.	.	.	.
8A/J	.	.	.	.
4d/	.	.	.	.
8c/)	.	.	.	.
=10	=10	=10	=10	=10
(8B-X/L	2.r	2.rg	2.r	.
8c/	.	.	.	.
8d/J	.	.	.	.
4G/	.	.	.	.
8Fn/)	.	.	.	.
=11	=11	=11	=11	=11
(4.En/	2.r	2.rgg	(8c\L	p
.	.	.	8e\	.
.	.	.	8g\J	.
4.C/)	.	.	4cc\	.
.	.	.	8b-\	.
=12	=12	=12	=12	=12
([4.F/	2.r	2.rgg	8a\L	.
.	.	.	8b-\	.
.	.	.	8cc\J	.
8F/L]	.	.	4f\	.
8G/	.	.	.	.
8A/J)	.	.	8e-X\)	.
=13	=13	=13	=13	=13
*	*	*	*	*^
(4.B-/	4r	4r	4d\	.	.
.	8r	8r	8en\	.	.
4A/)	4r	4r	4f\	.	.
!	!	!	!	!LO:DY:b=2	!LO:DY:a
8d/	8B-\	8g/	8f\	p	p
*	*	*	*	*v	*v
=14	=14	=14	=14	=14
8c/L	4.c\	(4.a/	(4.f\	.
8d/	.	.	.	.
8c/J	.	.	.	.
8B-/L	4C\	4.g/)	4.e\)	.
8c/	.	.	.	.
8B-/J	8C#X\	.	.	.
=15	=15	=15	=15	=15
(4.A/	4D\	(4f/	([2.d\	.
.	8Cn\	8f#X/	.	.
4G/	(4.BB-\	4g/	.	.
8D/	.	8g#X/	.	.
=16	=16	=16	=16	=16
4.E/	2.AA\)	2.a/)	8d\L]	.
.	.	.	8c#X\	.
.	.	.	8Bn\J)	.
4.A/)	.	.	4.c#\	.
!!LO:PB:g=original
=17	=17	=17	=17	=17
(>[2.c#/	(4.A\	(8a/L	4.e\	f
.	.	8cc#X/	.	.
.	.	8ee/J	.	.
.	4.G\	4ff/	4.b-X\	.
.	.	8ee/)	.	.
=18	=18	=18	=18	=18
8c#X/L]	2.F\	(4.aa/	8ee\L	.
8d/	.	.	8dd\	.
8e/J	.	.	8cc#X\J	.
4d/	.	4.dd/)	4dd\	.
8cn/)	.	.	8a-X\	.
=19	=19	=19	=19	=19
2.Bn/	4.G\	(8g/L	4.g\	.
.	.	8bn/	.	.
.	.	8dd/J	.	.
.	4.F\)	4ee/	4.a-X\	.
.	.	8dd/)	.	.
=20	=20	=20	=20	=20
[2.c/	[4.E\	((4.gg/	(8dd\L	.
.	.	.	8cc\	.
.	.	.	8bn\J	.
.	8E\L]	4cc/)	4cc\	.
.	8D\	.	.	.
.	8E\J	8b-X/)	8g\)	.
=21	=21	=21	=21	=21
(4.c/]	(4F\	(8a/L	[2.f\	.
.	.	8b-/	.	.
.	8E-X\	8cc/J	.	.
8d/L	4D\	4b-/	.	.
8B-/	.	.	.	.
8c/J)	8C\	8a/	.	.
=22	=22	=22	=22	=22
(8d/L	4.BB-\	2.g/	4.f\]	>
8c#X/	.	.	.	.
8d/J	.	.	.	.
8cn/L	4.C\	.	4.e\	.
8G/	.	.	.	.
8B-/J)	.	.	.	.
=23	=23	=23	=23	=23
(8A/L	4.FF\)	4.fZ/)	4.f\	.
8c/	.	.	.	]]
8d/J	.	.	.	.
4.e-X/)	[4.F\	(8cc/L	(4.a\	p
.	.	8dd/	.	.
.	.	8cc/J	.	.
!!LO:LB:g=original
=24	=24	=24	=24	=24
(8d/L	2.F\_	4.bn/)	4.a-\)	.
8en/	.	.	.	.
8f/J	.	.	.	.
4.d-X/)	.	(8b-X/L	4.g\	p
.	.	8cc/	.	.
.	.	8b-/J	.	.
=25	=25	=25	=25	=25
(8c/L	(4.F\]	4.aZ/)	4.f\	.
8Bn/	.	.	.	.
8c/J	.	.	.	.
4.A/)	4.E-X\	8f/L	4.c\	f
.	.	8g/	.	.
.	.	(8f/J	.	.
=26	=26	=26	=26	=26
(8B-X/L	4.D\	([4.ff/)	[2.f\	.
8c/	.	.	.	.
8B-/J	.	.	.	.
4.B-/)	4.D-X\)	8ff/L]	.	.
.	.	8f/	.	.
.	.	8g/J	.	.
=27	=27	=27	=27	=27
([4.c/	(8C\L	([4.a/)	4.f\]	p
.	8F\	.	.	>
.	8A\J	.	.	.
8c/L]	4.C\)	4a/]	4.e\	.
8Bn/	.	.	.	.
8B-X/J)	.	8g/)	.	]
=28	=28	=28	=28	=28
!LO:TX:b:i:t=Ped	!	!	!	!
2.A/	(8FF\L	[2.f/	2.c\	>
.	8AA\	.	.	.
.	8C\J	.	.	.
.	4F\	.	.	.
.	8E-X\	.	.	.
=29	=29	=29	=29	=29
[2.B-/	8D-X\L	2.f/_	([2.d-X\	.
.	8BB-\	.	.	.
.	8C\J	.	.	.
!	!	!LO:TX:a:i:t=rit.	!	!
.	4D-\	.	.	.
.	8BB-\	.	.	.
=30	=30	=30	=30	=30
8B-/L]	2.FF;\)	2.f;/]	8d-\L]	] pp
8A/	.	.	8c\	.
8G/J	.	.	8B-\J	.
4.A/	.	.	4.c\)	.
*v	*v	*	*	*
*	*v	*v	*
==	==	==
*-	*-	*-
!!!system-decoration: {(s1,s2)}
!!!RDF**kern: Z = caesura
!!!EED: Andrzej Borzym
!!!EST: 2021-08-08
!!!ENC: Krzysztof Stępień
!!!END: 2021-07-26
